Obsidian/actions/24s/node-delete-segment.svg

<svg height="24" viewBox="0 0 24 24" width="24" xmlns="http://www.w3.org/2000/svg"><path d="m1.0195312 0v2h-.50781245c-.67616-.0096-.67616 1.0096 0 1h.50781245v2h4v-2h4.9999998v2h4v-2.0019531h.496094c.66536 0 .66536-.9980469 0-.9980469h-.496094v-2h-4v2h-4.9999998v-2zm5.9804688 5.0273438v2h-2l2.5 3.0000002 2.5-3.0000002h-2v-2zm-5.9804688 5.9726562v2h-.50781245c-.67616-.0096-.67616 1.0096 0 1h.50781245v2h4v-2-1-2zm8.9999998 0v2 1 2h4v-2.001953h.496094c.66536 0 .66536-.998047 0-.998047h-.496094v-2z" fill="#bebebe" transform="translate(4 4)"/></svg>

<svg xmlns="http://www.w3.org/2000/svg" width="24" height="24" viewBox="0 0 24 24">
 <defs>
  <style id="current-color-scheme" type="text/css">
   .ColorScheme-Text { color:#bebebe; } .ColorScheme-Highlight { color:#4285f4; }
  </style>
 </defs>
 <path style="fill:currentColor" class="ColorScheme-Text" d="M 1.0195312 0 L 1.0195312 2 L 0.51171875 2 C -0.16444125 1.9904 -0.16444125 3.0096 0.51171875 3 L 1.0195312 3 L 1.0195312 5 L 5.0195312 5 L 5.0195312 3 L 10.019531 3 L 10.019531 5 L 14.019531 5 L 14.019531 2.9980469 L 14.515625 2.9980469 C 15.180985 2.9980469 15.180985 2 14.515625 2 L 14.019531 2 L 14.019531 0 L 10.019531 0 L 10.019531 2 L 5.0195312 2 L 5.0195312 0 L 1.0195312 0 z M 7 5.0273438 L 7 7.0273438 L 5 7.0273438 L 7.5 10.027344 L 10 7.0273438 L 8 7.0273438 L 8 5.0273438 L 7 5.0273438 z M 1.0195312 11 L 1.0195312 13 L 0.51171875 13 C -0.16444125 12.9904 -0.16444125 14.0096 0.51171875 14 L 1.0195312 14 L 1.0195312 16 L 5.0195312 16 L 5.0195312 14 L 5.0195312 13 L 5.0195312 11 L 1.0195312 11 z M 10.019531 11 L 10.019531 13 L 10.019531 14 L 10.019531 16 L 14.019531 16 L 14.019531 13.998047 L 14.515625 13.998047 C 15.180985 13.998047 15.180985 13 14.515625 13 L 14.019531 13 L 14.019531 11 L 10.019531 11 z" transform="translate(4 4)"/>
</svg>
